; G-Code generated by Simplify3D(R) Version 4.1.2
; Aug 10, 2022 at 5:16:40 PM
; Settings Summary
;   processName,Process1
;   applyToModels,Sprinkler Case - top v3
;   profileName,Creality Ender 5 Plus - v6 (modified)
;   profileVersion,2021-04-05 09:37:09
;   baseProfile,Creality Ender-5(3) (modified)
;   printMaterial,PLA
;   printQuality,Medium
;   printExtruders,
;   extruderName,Primary Extruder
;   extruderToolheadNumber,0
;   extruderDiameter,0.4
;   extruderAutoWidth,0
;   extruderWidth,0.4
;   extrusionMultiplier,1.12
;   extruderUseRetract,1
;   extruderRetractionDistance,2
;   extruderExtraRestartDistance,0
;   extruderRetractionZLift,0
;   extruderRetractionSpeed,1800
;   extruderUseCoasting,0
;   extruderCoastingDistance,0.1
;   extruderUseWipe,0
;   extruderWipeDistance,0.1
;   primaryExtruder,0
;   layerHeight,0.2
;   topSolidLayers,3
;   bottomSolidLayers,3
;   perimeterOutlines,3
;   printPerimetersInsideOut,1
;   startPointOption,2
;   startPointOriginX,350
;   startPointOriginY,0
;   sequentialIslands,0
;   spiralVaseMode,0
;   firstLayerHeightPercentage,100
;   firstLayerWidthPercentage,100
;   firstLayerUnderspeed,0.25
;   useRaft,0
;   raftExtruder,0
;   raftTopLayers,2
;   raftBaseLayers,2
;   raftOffset,20
;   raftSeparationDistance,0.14
;   raftTopInfill,100
;   aboveRaftSpeedMultiplier,0.3
;   useSkirt,1
;   skirtExtruder,0
;   skirtLayers,1
;   skirtOutlines,2
;   skirtOffset,5
;   usePrimePillar,0
;   primePillarExtruder,999
;   primePillarWidth,6
;   primePillarLocation,6
;   primePillarSpeedMultiplier,1
;   useOozeShield,0
;   oozeShieldExtruder,999
;   oozeShieldOffset,2
;   oozeShieldOutlines,1
;   oozeShieldSidewallShape,1
;   oozeShieldSidewallAngle,30
;   oozeShieldSpeedMultiplier,1
;   infillExtruder,0
;   internalInfillPattern,Rectilinear
;   externalInfillPattern,Rectilinear
;   infillPercentage,20
;   outlineOverlapPercentage,18
;   infillExtrusionWidthPercentage,100
;   minInfillLength,3
;   infillLayerInterval,1
;   internalInfillAngles,45,-45
;   overlapInternalInfillAngles,0
;   externalInfillAngles,45,-45
;   generateSupport,0
;   supportExtruder,0
;   supportInfillPercentage,25
;   supportExtraInflation,0
;   supportBaseLayers,3
;   denseSupportExtruder,0
;   denseSupportLayers,1
;   denseSupportInfillPercentage,70
;   supportLayerInterval,1
;   supportHorizontalPartOffset,0.3
;   supportUpperSeparationLayers,1
;   supportLowerSeparationLayers,1
;   supportType,0
;   supportGridSpacing,3
;   maxOverhangAngle,65
;   supportAngles,0
;   temperatureName,Primary Extruder,Heated Bed
;   temperatureNumber,0,0
;   temperatureSetpointCount,1,1
;   temperatureSetpointLayers,1,1
;   temperatureSetpointTemperatures,200,50
;   temperatureStabilizeAtStartup,1,1
;   temperatureHeatedBed,0,1
;   fanLayers,1,2,5
;   fanSpeeds,0,0,60
;   blipFanToFullPower,1
;   adjustSpeedForCooling,0
;   minSpeedLayerTime,10
;   minCoolingSpeedSlowdown,20
;   increaseFanForCooling,1
;   minFanLayerTime,45
;   maxCoolingFanSpeed,100
;   increaseFanForBridging,1
;   bridgingFanSpeed,100
;   use5D,1
;   relativeEdistances,0
;   allowEaxisZeroing,1
;   independentExtruderAxes,0
;   includeM10123,0
;   stickySupport,1
;   applyToolheadOffsets,0
;   gcodeXoffset,0
;   gcodeYoffset,0
;   gcodeZoffset,0
;   overrideMachineDefinition,1
;   machineTypeOverride,0
;   strokeXoverride,350
;   strokeYoverride,350
;   strokeZoverride,400
;   originOffsetXoverride,0
;   originOffsetYoverride,0
;   originOffsetZoverride,0
;   homeXdirOverride,-1
;   homeYdirOverride,-1
;   homeZdirOverride,-1
;   flipXoverride,1
;   flipYoverride,-1
;   flipZoverride,1
;   toolheadOffsets,0,0|0,0|0,0|0,0|0,0|0,0
;   overrideFirmwareConfiguration,1
;   firmwareTypeOverride,RepRap (Marlin/Repetier/Sprinter)
;   GPXconfigOverride,r2
;   baudRateOverride,115200
;   overridePrinterModels,1
;   printerModelsOverride
;   startingGcode,G28; home all axes,;G29 ; BLTouch bed leveling,M420 S1 ; restore ABL mesh ,G1 X5 Y10 Z0.2 F3000 ; get ready to prime,G92 E0 ; reset extrusion distance,G1 X200 E15 F600 ; prime nozzle,G1 X210 F5000 ; quick wipe
;   layerChangeGcode,
;   retractionGcode,
;   toolChangeGcode,
;   endingGcode,G28 X0 Y0 ; home X and Y axis,M106 S0 ; turn off cooling fan,M104 S0 ; turn off extruder,M140 S0 ; turn off bed,M84 ; disable motors
;   exportFileFormat,gcode
;   celebration,0
;   celebrationSong,Take On Me
;   postProcessing,
;   defaultSpeed,2400
;   outlineUnderspeed,0.6
;   solidInfillUnderspeed,0.8
;   supportUnderspeed,0.8
;   rapidXYspeed,6000
;   rapidZspeed,1002
;   minBridgingArea,25
;   bridgingExtraInflation,0.5
;   bridgingExtrusionMultiplier,1
;   bridgingSpeedMultiplier,1.1
;   useFixedBridgingAngle,0
;   fixedBridgingAngle,0
;   applyBridgingToPerimeters,0
;   filamentDiameters,1.75|1.75|1.75|1.75|1.75|1.75
;   filamentPricesPerKg,30|46|46|46|46|46
;   filamentDensities,1.25|1.25|1.25|1.25|1.25|1.25
;   useMinPrintHeight,0
;   minPrintHeight,10
;   useMaxPrintHeight,0
;   maxPrintHeight,6
;   useDiaphragm,0
;   diaphragmLayerInterval,20
;   robustSlicing,1
;   mergeAllIntoSolid,0
;   onlyRetractWhenCrossingOutline,0
;   retractBetweenLayers,1
;   useRetractionMinTravel,1
;   retractionMinTravel,1
;   retractWhileWiping,1
;   onlyWipeOutlines,1
;   avoidCrossingOutline,0
;   maxMovementDetourFactor,3
;   toolChangeRetractionDistance,12
;   toolChangeExtraRestartDistance,-0.5
;   toolChangeRetractionSpeed,600
;   externalThinWallType,0
;   internalThinWallType,1
;   thinWallAllowedOverlapPercentage,20
;   singleExtrusionMinLength,0.5
;   singleExtrusionMinPrintingWidthPercentage,50
;   singleExtrusionMaxPrintingWidthPercentage,200
;   singleExtrusionEndpointExtension,0.2
;   horizontalSizeCompensation,0
G90
M82
M106 S0
M140 S50
M190 S50
M104 S200 T0
M109 S200 T0
G28; home all axes
;G29 ; BLTouch bed leveling
M420 S1 ; restore ABL mesh 
G1 X5 Y10 Z0.2 F3000 ; get ready to prime
G92 E0 ; reset extrusion distance
G1 X200 E15 F600 ; prime nozzle
G1 X210 F5000 ; quick wipe
; process Process1
; layer 1, Z = 0.200
T0
G92 E0.0000
G1 E-2.0000 F1800
; feature skirt
; tool H0.200 W0.400
G1 Z0.200 F1002
G1 X102.437 Y125.543 F6000
G1 E0.0000 F1800
G92 E0.0000
G1 X103.453 Y124.876 E0.0453 F600
G1 X104.430 Y124.472 E0.0846
G1 X105.396 Y124.273 E0.1214
G1 X105.965 Y124.214 E0.1427
G1 X244.661 Y124.233 E5.3093
G1 X246.176 Y124.668 E5.3680
G1 X247.654 Y125.593 E5.4330
G1 X248.643 Y126.643 E5.4867
G1 X249.329 Y127.902 E5.5401
G1 X249.646 Y128.864 E5.5778
G1 X249.759 Y129.669 E5.6081
G1 X249.785 Y130.056 E5.6226
G1 X249.785 Y220.148 E8.9786
G1 X249.673 Y220.935 E9.0082
G1 X249.284 Y222.272 E9.0601
G1 X248.492 Y223.558 E9.1163
G1 X247.262 Y224.707 E9.1791
G1 X246.023 Y225.385 E9.2317
G1 X244.795 Y225.698 E9.2789
G1 X244.100 Y225.785 E9.3050
G1 X105.853 Y225.785 E14.4549
G1 X105.065 Y225.673 E14.4845
G1 X103.728 Y225.284 E14.5364
G1 X102.442 Y224.492 E14.5926
G1 X101.293 Y223.262 E14.6554
G1 X100.615 Y222.023 E14.7079
G1 X100.302 Y220.795 E14.7552
G1 X100.215 Y220.100 E14.7812
G1 X100.215 Y129.927 E18.1403
G1 X100.286 Y129.299 E18.1638
G1 X100.517 Y128.288 E18.2025
G1 X100.963 Y127.289 E18.2432
G1 X101.678 Y126.276 E18.2894
G1 X102.437 Y125.543 E18.3288
G1 X102.688 Y125.857 F6000
G92 E0.0000
G1 X103.641 Y125.232 E0.0425 F600
G1 X104.548 Y124.856 E0.0790
G1 X105.457 Y124.668 E0.1136
G1 X105.985 Y124.614 E0.1334
G1 X244.605 Y124.633 E5.2971
G1 X246.012 Y125.037 E5.3517
G1 X247.398 Y125.905 E5.4126
G1 X248.316 Y126.880 E5.4625
G1 X248.960 Y128.061 E5.5126
G1 X249.255 Y128.955 E5.5476
G1 X249.361 Y129.711 E5.5761
G1 X249.385 Y130.070 E5.5895
G1 X249.385 Y220.119 E8.9439
G1 X249.281 Y220.850 E8.9714
G1 X248.915 Y222.108 E9.0203
G1 X248.180 Y223.302 E9.0725
G1 X247.025 Y224.381 E9.1313
G1 X245.876 Y225.010 E9.1802
G1 X244.721 Y225.304 E9.2246
G1 X244.075 Y225.385 E9.2488
G1 X105.881 Y225.385 E14.3967
G1 X105.150 Y225.281 E14.4242
G1 X103.892 Y224.915 E14.4730
G1 X102.698 Y224.180 E14.5253
G1 X101.619 Y223.025 E14.5841
G1 X100.990 Y221.876 E14.6329
G1 X100.696 Y220.721 E14.6774
G1 X100.615 Y220.075 E14.7016
G1 X100.615 Y129.949 E18.0589
G1 X100.681 Y129.367 E18.0807
G1 X100.898 Y128.416 E18.1171
G1 X101.312 Y127.488 E18.1549
G1 X101.983 Y126.537 E18.1983
G1 X102.688 Y125.857 E18.2348
G92 E0.0000
G1 E-2.0000 F1800
; feature inner perimeter
G1 X106.815 Y130.815 F6000
G1 E0.0000 F1800
G92 E0.0000
G1 X243.185 Y130.815 E5.0800 F480
G1 X243.185 Y219.185 E8.3719
G1 X106.815 Y219.185 E13.4519
G1 X106.815 Y130.815 E16.7439
G92 E0.0000
G1 E-2.0000 F1800
G1 X113.598 Y149.771 F6000
G1 E0.0000 F1800
G92 E0.0000
G1 X113.825 Y149.840 E0.0088 F480
G1 X113.825 Y150.606 E0.0374
G1 X113.040 Y150.606 E0.0667
G1 X113.598 Y149.771 E0.1041
G1 X114.004 Y150.360 F6000
G92 E0.0000
G1 X114.969 Y149.875 E0.0402 F480
G1 X114.969 Y150.606 E0.0675
G1 X114.063 Y150.606 E0.1012
G1 X114.004 Y150.360 E0.1107
G92 E0.0000
G1 E-2.0000 F1800
G1 X113.887 Y165.338 F6000
G1 E0.0000 F1800
G92 E0.0000
G1 X115.001 Y165.338 E0.0415 F480
G1 X114.345 Y166.010 E0.0765
G1 X114.067 Y166.345 E0.0927
G1 X113.883 Y166.606 E0.1046
G1 X113.040 Y166.606 E0.1360
G1 X113.887 Y165.338 E0.1928
G92 E0.0000
G1 E-2.0000 F1800
G1 X113.997 Y183.175 F6000
G1 E0.0000 F1800
G92 E0.0000
G1 X114.540 Y183.175 E0.0202 F480
G1 X114.439 Y183.626 E0.0375
G1 X113.695 Y183.626 E0.0652
G1 X113.997 Y183.175 E0.0854
G1 X113.783 Y182.775 F6000
G92 E0.0000
G1 X115.039 Y182.775 E0.0468 F480
G1 X114.760 Y184.026 E0.0946
G1 X113.660 Y184.026 E0.1355
G1 X113.776 Y185.006 E0.1723
G1 X112.291 Y185.006 E0.2276
G1 X113.783 Y182.775 E0.3276
G92 E0.0000
G1 E-2.0000 F1800
G1 X115.502 Y184.173 F6000
G1 E0.0000 F1800
G92 E0.0000
G1 X115.798 Y184.095 E0.0114 F480
G1 X115.872 Y184.085 E0.0142
G1 X115.926 Y184.087 E0.0162
G1 X115.967 Y184.095 E0.0177
G1 X116.000 Y184.108 E0.0191
G1 X116.030 Y184.127 E0.0204
G1 X116.085 Y184.176 E0.0231
G1 X116.114 Y184.212 E0.0249
G1 X116.143 Y184.266 E0.0272
G1 X116.168 Y184.339 E0.0300
G1 X116.181 Y184.421 E0.0331
G1 X116.185 Y184.528 E0.0371
G1 X116.172 Y184.657 E0.0419
G1 X116.155 Y184.731 E0.0448
G1 X116.133 Y184.789 E0.0470
G1 X116.093 Y184.856 E0.0500
G1 X116.002 Y184.950 E0.0548
G1 X115.907 Y185.005 E0.0589
G1 X115.790 Y185.001 E0.0633
G1 X115.720 Y184.927 E0.0671
G1 X115.651 Y184.794 E0.0727
G1 X115.620 Y184.701 E0.0763
G1 X115.502 Y184.173 E0.0965
G92 E0.0000
G1 E-2.0000 F1800
G1 X114.107 Y167.006 F6000
G1 E0.0000 F1800
G92 E0.0000
G1 X112.291 Y167.006 E0.0676 F480
G1 X113.674 Y164.938 E0.1603
G1 X115.896 Y164.938 E0.2431
G1 X115.530 Y165.370 E0.2642
G1 X114.642 Y166.278 E0.3115
G1 X114.385 Y166.588 E0.3265
G1 X114.164 Y166.902 E0.3408
G1 X114.107 Y167.006 E0.3452
G92 E0.0000
G1 E-2.0000 F1800
G1 X115.729 Y164.779 F6000
G1 E0.0000 F1800
G92 E0.0000
G1 X115.760 Y164.220 E0.0209 F480
G1 X115.779 Y164.121 E0.0246
G1 X115.803 Y164.059 E0.0271
G1 X115.827 Y164.024 E0.0287
G1 X115.856 Y163.997 E0.0301
G1 X115.889 Y163.978 E0.0316
G1 X115.928 Y163.966 E0.0331
G1 X116.042 Y163.957 E0.0374
G1 X116.122 Y164.043 E0.0417
G1 X116.151 Y164.096 E0.0440
G1 X116.169 Y164.149 E0.0460
G1 X116.183 Y164.256 E0.0501
G1 X116.180 Y164.353 E0.0537
G1 X116.164 Y164.438 E0.0569
G1 X116.121 Y164.566 E0.0619
G1 X115.980 Y164.846 E0.0736
G1 X115.729 Y164.779 E0.0833
G92 E0.0000
G1 E-2.0000 F1800
G1 X106.415 Y130.415 F6000
G1 E0.0000 F1800
G92 E0.0000
G1 X243.585 Y130.415 E5.1098 F480
G1 X243.585 Y219.585 E8.4315
G1 X106.415 Y219.585 E13.5413
G1 X106.415 Y130.415 E16.8631
; feature outer perimeter
G1 X106.270 Y130.015 F6000
G92 E0.0000
G1 X243.735 Y130.015 E5.1207 F360
G1 X243.816 Y130.027 E5.1238
G1 X243.873 Y130.053 E5.1261
G1 X243.923 Y130.094 E5.1285
G1 X243.956 Y130.141 E5.1307
G1 X243.975 Y130.189 E5.1326
G1 X243.985 Y130.264 E5.1354
G1 X243.985 Y219.735 E8.4683
G1 X243.973 Y219.816 E8.4714
G1 X243.947 Y219.873 E8.4737
G1 X243.906 Y219.923 E8.4761
G1 X243.859 Y219.956 E8.4783
G1 X243.811 Y219.975 E8.4802
G1 X243.736 Y219.985 E8.4830
G1 X106.265 Y219.985 E13.6040
G1 X106.184 Y219.973 E13.6070
G1 X106.125 Y219.947 E13.6094
G1 X106.083 Y219.912 E13.6115
G1 X106.044 Y219.858 E13.6140
G1 X106.025 Y219.811 E13.6159
G1 X106.015 Y219.736 E13.6187
G1 X106.015 Y130.265 E16.9516
G1 X106.040 Y130.155 E16.9558
G1 X106.091 Y130.083 E16.9591
G1 X106.160 Y130.037 E16.9622
G1 X106.270 Y130.015 E16.9664
G92 E0.0000
G1 E-2.0000 F1800
; feature inner perimeter
G1 X156.747 Y182.454 F6000
G1 E0.0000 F1800
G92 E0.0000
G1 X156.802 Y182.405 E0.0027 F480
G1 X156.948 Y182.369 E0.0083
G1 X157.112 Y182.365 E0.0144
G1 X157.170 Y182.431 E0.0177
G1 X157.206 Y182.488 E0.0202
G1 X157.229 Y182.536 E0.0222
G1 X157.458 Y183.205 E0.0485
G1 X157.223 Y184.252 E0.0885
G1 X157.177 Y184.379 E0.0936
G1 X157.115 Y184.494 E0.0984
G1 X157.065 Y184.553 E0.1013
G1 X156.999 Y184.602 E0.1043
G1 X156.856 Y184.593 E0.1097
G1 X156.780 Y184.553 E0.1129
G1 X156.755 Y184.531 E0.1142
G1 X156.685 Y184.443 E0.1183
G1 X156.620 Y184.315 E0.1237
G1 X156.566 Y184.143 E0.1304
G1 X156.531 Y183.958 E0.1374
G1 X156.502 Y183.647 E0.1490
G1 X156.498 Y183.372 E0.1593
G1 X156.514 Y183.105 E0.1693
G1 X156.545 Y182.902 E0.1769
G1 X156.586 Y182.750 E0.1828
G1 X156.647 Y182.603 E0.1887
G1 X156.702 Y182.509 E0.1927
G1 X156.747 Y182.454 E0.1954
G1 X156.458 Y182.175 F6000
G92 E0.0000
G1 X156.550 Y182.095 E0.0045 F480
G1 X156.618 Y182.052 E0.0075
G1 X156.682 Y182.023 E0.0101
G1 X156.895 Y181.970 E0.0183
G1 X157.127 Y181.965 E0.0270
G1 X157.202 Y181.978 E0.0298
G1 X157.275 Y182.002 E0.0327
G1 X157.341 Y182.037 E0.0355
G1 X157.375 Y182.063 E0.0370
G1 X157.488 Y182.186 E0.0433
G1 X157.556 Y182.294 E0.0480
G1 X157.600 Y182.384 E0.0518
G1 X157.961 Y183.439 E0.0933
G1 X157.823 Y183.405 E0.0986
G1 X157.608 Y184.364 E0.1352
G1 X157.543 Y184.544 E0.1423
G1 X157.446 Y184.722 E0.1499
G1 X157.341 Y184.846 E0.1560
G1 X157.226 Y184.933 E0.1613
G1 X157.110 Y184.982 E0.1660
G1 X156.984 Y185.002 E0.1708
G1 X156.804 Y184.991 E0.1775
G1 X156.697 Y184.962 E0.1816
G1 X156.555 Y184.887 E0.1876
G1 X156.466 Y184.811 E0.1919
G1 X156.346 Y184.660 E0.1991
G1 X156.248 Y184.466 E0.2072
G1 X156.178 Y184.241 E0.2160
G1 X156.134 Y184.014 E0.2246
G1 X156.102 Y183.669 E0.2375
G1 X156.098 Y183.362 E0.2489
G1 X156.116 Y183.062 E0.2602
G1 X156.153 Y182.820 E0.2693
G1 X156.206 Y182.622 E0.2769
G1 X156.288 Y182.424 E0.2849
G1 X156.372 Y182.281 E0.2911
G1 X156.458 Y182.175 E0.2962
G92 E0.0000
G1 E-2.0000 F1800
G1 X157.980 Y183.194 F6000
G1 E0.0000 F1800
G92 E0.0000
G1 X158.818 Y182.984 E0.0322 F480
G1 X158.818 Y183.653 E0.0571
G1 X157.980 Y183.444 E0.0893
G1 X157.980 Y183.194 E0.0986
G92 E0.0000
G1 E-2.0000 F1800
G1 X148.197 Y183.233 F6000
G1 E0.0000 F1800
G92 E0.0000
G1 X147.467 Y183.062 E0.0279 F480
G1 X147.640 Y182.827 E0.0388
G1 X147.771 Y182.590 E0.0489
G1 X147.927 Y182.109 E0.0677
G1 X148.197 Y182.152 E0.0779
G1 X148.197 Y183.233 E0.1182
G92 E0.0000
G1 E-2.0000 F1800
G1 X144.741 Y182.915 F6000
G1 E0.0000 F1800
G92 E0.0000
G1 X144.168 Y183.439 E0.0289 F480
G1 X144.168 Y182.168 E0.0763
G1 X144.446 Y182.131 E0.0867
G1 X144.553 Y182.529 E0.1021
G1 X144.663 Y182.779 E0.1122
G1 X144.741 Y182.915 E0.1181
G92 E0.0000
G1 E-2.0000 F1800
; feature outer perimeter
G1 X162.426 Y184.663 F6000
G1 E0.0000 F1800
G92 E0.0000
G1 X163.828 Y184.663 E0.0523 F360
G1 X163.675 Y185.053 E0.0679
G1 X163.615 Y185.150 E0.0721
G1 X163.529 Y185.254 E0.0772
G1 X163.461 Y185.311 E0.0805
G1 X163.364 Y185.366 E0.0846
G1 X163.285 Y185.392 E0.0877
G1 X163.184 Y185.405 E0.0915
G1 X163.056 Y185.400 E0.0963
G1 X162.974 Y185.384 E0.0994
G1 X162.804 Y185.311 E0.1063
G1 X162.646 Y185.181 E0.1139
G1 X162.526 Y185.007 E0.1218
G1 X162.439 Y184.762 E0.1315
G1 X162.426 Y184.663 E0.1352
G92 E0.0000
G1 E-2.0000 F1800
; feature inner perimeter
G1 X169.566 Y192.158 F6000
G1 E0.0000 F1800
G92 E0.0000
G1 X169.970 Y191.984 E0.0164 F480
G1 X170.084 Y191.964 E0.0207
G1 X170.239 Y191.963 E0.0265
G1 X170.328 Y191.978 E0.0298
G1 X170.378 Y191.998 E0.0318
G1 X170.424 Y192.031 E0.0340
G1 X170.477 Y192.099 E0.0371
G1 X170.642 Y192.453 E0.0517
G1 X170.026 Y192.321 E0.0752
G1 X169.566 Y192.158 E0.0933
G92 E0.0000
G1 E-2.0000 F1800
; feature outer perimeter
