; G-Code generated by Simplify3D(R) Version 4.1.2
; Aug 9, 2022 at 4:57:52 PM
; Settings Summary
;   processName,Process1
;   applyToModels,Sprinkler Case - bottom v1
;   profileName,Creality Ender 5 Plus - v6 (modified)
;   profileVersion,2021-04-05 09:37:09
;   baseProfile,Creality Ender-5(3) (modified)
;   printMaterial,PLA
;   printQuality,Medium
;   printExtruders,
;   extruderName,Primary Extruder
;   extruderToolheadNumber,0
;   extruderDiameter,0.4
;   extruderAutoWidth,0
;   extruderWidth,0.4
;   extrusionMultiplier,1.13
;   extruderUseRetract,1
;   extruderRetractionDistance,1.2
;   extruderExtraRestartDistance,0
;   extruderRetractionZLift,0
;   extruderRetractionSpeed,1800
;   extruderUseCoasting,0
;   extruderCoastingDistance,0.1
;   extruderUseWipe,0
;   extruderWipeDistance,0.1
;   primaryExtruder,0
;   layerHeight,0.2
;   topSolidLayers,3
;   bottomSolidLayers,3
;   perimeterOutlines,3
;   printPerimetersInsideOut,1
;   startPointOption,2
;   startPointOriginX,350
;   startPointOriginY,0
;   sequentialIslands,0
;   spiralVaseMode,0
;   firstLayerHeightPercentage,100
;   firstLayerWidthPercentage,100
;   firstLayerUnderspeed,0.5
;   useRaft,0
;   raftExtruder,0
;   raftTopLayers,2
;   raftBaseLayers,2
;   raftOffset,20
;   raftSeparationDistance,0.14
;   raftTopInfill,100
;   aboveRaftSpeedMultiplier,0.3
;   useSkirt,1
;   skirtExtruder,0
;   skirtLayers,1
;   skirtOutlines,2
;   skirtOffset,5
;   usePrimePillar,0
;   primePillarExtruder,999
;   primePillarWidth,6
;   primePillarLocation,6
;   primePillarSpeedMultiplier,1
;   useOozeShield,0
;   oozeShieldExtruder,999
;   oozeShieldOffset,2
;   oozeShieldOutlines,1
;   oozeShieldSidewallShape,1
;   oozeShieldSidewallAngle,30
;   oozeShieldSpeedMultiplier,1
;   infillExtruder,0
;   internalInfillPattern,Rectilinear
;   externalInfillPattern,Rectilinear
;   infillPercentage,20
;   outlineOverlapPercentage,18
;   infillExtrusionWidthPercentage,100
;   minInfillLength,3
;   infillLayerInterval,1
;   internalInfillAngles,45,-45
;   overlapInternalInfillAngles,0
;   externalInfillAngles,45,-45
;   generateSupport,0
;   supportExtruder,0
;   supportInfillPercentage,25
;   supportExtraInflation,0
;   supportBaseLayers,3
;   denseSupportExtruder,0
;   denseSupportLayers,1
;   denseSupportInfillPercentage,70
;   supportLayerInterval,1
;   supportHorizontalPartOffset,0.3
;   supportUpperSeparationLayers,1
;   supportLowerSeparationLayers,1
;   supportType,0
;   supportGridSpacing,3
;   maxOverhangAngle,65
;   supportAngles,0
;   temperatureName,Primary Extruder,Heated Bed
;   temperatureNumber,0,0
;   temperatureSetpointCount,1,1
;   temperatureSetpointLayers,1,1
;   temperatureSetpointTemperatures,200,50
;   temperatureStabilizeAtStartup,1,1
;   temperatureHeatedBed,0,1
;   fanLayers,1,2,5
;   fanSpeeds,0,0,60
;   blipFanToFullPower,1
;   adjustSpeedForCooling,0
;   minSpeedLayerTime,10
;   minCoolingSpeedSlowdown,20
;   increaseFanForCooling,1
;   minFanLayerTime,45
;   maxCoolingFanSpeed,100
;   increaseFanForBridging,1
;   bridgingFanSpeed,100
;   use5D,1
;   relativeEdistances,0
;   allowEaxisZeroing,1
;   independentExtruderAxes,0
;   includeM10123,0
;   stickySupport,1
;   applyToolheadOffsets,0
;   gcodeXoffset,0
;   gcodeYoffset,0
;   gcodeZoffset,0
;   overrideMachineDefinition,1
;   machineTypeOverride,0
;   strokeXoverride,350
;   strokeYoverride,350
;   strokeZoverride,400
;   originOffsetXoverride,0
;   originOffsetYoverride,0
;   originOffsetZoverride,0
;   homeXdirOverride,-1
;   homeYdirOverride,-1
;   homeZdirOverride,-1
;   flipXoverride,1
;   flipYoverride,-1
;   flipZoverride,1
;   toolheadOffsets,0,0|0,0|0,0|0,0|0,0|0,0
;   overrideFirmwareConfiguration,1
;   firmwareTypeOverride,RepRap (Marlin/Repetier/Sprinter)
;   GPXconfigOverride,r2
;   baudRateOverride,115200
;   overridePrinterModels,1
;   printerModelsOverride
;   startingGcode,G28; home all axes,;G29 ; BLTouch bed leveling,M420 S1 ; restore ABL mesh ,G1 X5 Y10 Z0.2 F3000 ; get ready to prime,G92 E0 ; reset extrusion distance,G1 X200 E15 F600 ; prime nozzle,G1 X210 F5000 ; quick wipe
;   layerChangeGcode,
;   retractionGcode,
;   toolChangeGcode,
;   endingGcode,G28 X0 Y0 ; home X and Y axis,M106 S0 ; turn off cooling fan,M104 S0 ; turn off extruder,M140 S0 ; turn off bed,M84 ; disable motors
;   exportFileFormat,gcode
;   celebration,0
;   celebrationSong,Take On Me
;   postProcessing,
;   defaultSpeed,2400
;   outlineUnderspeed,0.6
;   solidInfillUnderspeed,0.8
;   supportUnderspeed,0.8
;   rapidXYspeed,6000
;   rapidZspeed,1002
;   minBridgingArea,25
;   bridgingExtraInflation,0.5
;   bridgingExtrusionMultiplier,1
;   bridgingSpeedMultiplier,1.1
;   useFixedBridgingAngle,0
;   fixedBridgingAngle,0
;   applyBridgingToPerimeters,0
;   filamentDiameters,1.75|1.75|1.75|1.75|1.75|1.75
;   filamentPricesPerKg,30|46|46|46|46|46
;   filamentDensities,1.25|1.25|1.25|1.25|1.25|1.25
;   useMinPrintHeight,0
;   minPrintHeight,10
;   useMaxPrintHeight,0
;   maxPrintHeight,6
;   useDiaphragm,0
;   diaphragmLayerInterval,20
;   robustSlicing,1
;   mergeAllIntoSolid,0
;   onlyRetractWhenCrossingOutline,0
;   retractBetweenLayers,1
;   useRetractionMinTravel,1
;   retractionMinTravel,1
;   retractWhileWiping,1
;   onlyWipeOutlines,1
;   avoidCrossingOutline,0
;   maxMovementDetourFactor,3
;   toolChangeRetractionDistance,12
;   toolChangeExtraRestartDistance,-0.5
;   toolChangeRetractionSpeed,600
;   externalThinWallType,0
;   internalThinWallType,1
;   thinWallAllowedOverlapPercentage,20
;   singleExtrusionMinLength,0.5
;   singleExtrusionMinPrintingWidthPercentage,50
;   singleExtrusionMaxPrintingWidthPercentage,200
;   singleExtrusionEndpointExtension,0.2
;   horizontalSizeCompensation,0
G90
M82
M106 S0
M140 S50
M190 S50
M104 S200 T0
M109 S200 T0
G28; home all axes
;G29 ; BLTouch bed leveling
M420 S1 ; restore ABL mesh 
G1 X5 Y10 Z0.2 F3000 ; get ready to prime
G92 E0 ; reset extrusion distance
G1 X200 E15 F600 ; prime nozzle
G1 X210 F5000 ; quick wipe
; process Process1
; layer 1, Z = 0.200
T0
G92 E0.0000
G1 E-1.2000 F1800
; feature skirt
; tool H0.200 W0.400
G1 Z0.200 F1002
G1 X102.980 Y105.698 F6000
G1 E0.0000 F1800
G92 E0.0000
G1 X247.020 Y105.698 E5.4136 F1200
G1 X250.300 Y108.978 E5.5879
G1 X250.300 Y205.018 E9.1975
G1 X247.020 Y208.298 E9.3718
G1 X102.980 Y208.298 E14.7854
G1 X99.700 Y205.018 E14.9597
G1 X99.700 Y108.978 E18.5693
G1 X102.980 Y105.698 E18.7436
G1 X103.146 Y106.098 F6000
G92 E0.0000
G1 X246.854 Y106.098 E5.4011 F1200
G1 X249.900 Y109.144 E5.5630
G1 X249.900 Y204.852 E9.1601
G1 X246.854 Y207.898 E9.3220
G1 X103.146 Y207.898 E14.7231
G1 X100.100 Y204.852 E14.8850
G1 X100.100 Y109.144 E18.4821
G1 X103.146 Y106.098 E18.6440
G92 E0.0000
G1 E-1.2000 F1800
; feature inner perimeter
G1 X106.300 Y112.298 F6000
G1 E0.0000 F1800
G92 E0.0000
G1 X243.700 Y112.298 E5.1640 F960
G1 X243.700 Y201.698 E8.5240
G1 X106.300 Y201.698 E13.6881
G1 X106.300 Y112.298 E17.0481
G1 X105.900 Y111.898 F6000
G92 E0.0000
G1 X244.100 Y111.898 E5.1941 F960
G1 X244.100 Y202.098 E8.5842
G1 X105.900 Y202.098 E13.7783
G1 X105.900 Y111.898 E17.1683
; feature outer perimeter
G1 X105.500 Y111.498 F6000
G92 E0.0000
G1 X244.500 Y111.498 E5.2242 F720
G1 X244.500 Y202.498 E8.6443
G1 X105.500 Y202.498 E13.8685
G1 X105.500 Y111.498 E17.2886
G92 E0.0000
G1 E-1.2000 F1800
; feature solid layer
G1 X106.801 Y201.370 F6000
G1 E0.0000 F1800
G92 E0.0000
G1 X106.628 Y201.197 E0.0092 F960
G1 X106.628 Y200.632 E0.0304
G1 X107.366 Y201.370 E0.0697
G1 X107.932 Y201.370 E0.0909
G1 X106.628 Y200.066 E0.1602
G1 X106.628 Y199.500 E0.1815
G1 X108.498 Y201.370 E0.2809
G1 X109.063 Y201.370 E0.3021
G1 X106.628 Y198.935 E0.4316
G1 X106.628 Y198.369 E0.4528
G1 X109.629 Y201.370 E0.6124
G1 X110.195 Y201.370 E0.6336
G1 X106.628 Y197.803 E0.8232
G1 X106.628 Y197.238 E0.8445
G1 X110.760 Y201.370 E1.0641
G1 X111.326 Y201.370 E1.0854
G1 X106.628 Y196.672 E1.3351
G1 X106.628 Y196.106 E1.3563
G1 X111.892 Y201.370 E1.6361
G1 X112.457 Y201.370 E1.6574
G1 X106.628 Y195.541 E1.9672
G1 X106.628 Y194.975 E1.9885
G1 X113.023 Y201.370 E2.3284
G1 X113.589 Y201.370 E2.3497
G1 X106.628 Y194.409 E2.7196
G1 X106.628 Y193.843 E2.7409
G1 X114.155 Y201.370 E3.1409
G1 X114.720 Y201.370 E3.1622
G1 X106.628 Y193.278 E3.5923
G1 X106.628 Y192.712 E3.6136
G1 X115.286 Y201.370 E4.0738
G1 X115.852 Y201.370 E4.0950
G1 X106.628 Y192.146 E4.5853
G1 X106.628 Y191.581 E4.6065
G1 X116.417 Y201.370 E5.1268
G1 X116.983 Y201.370 E5.1481
G1 X106.628 Y191.015 E5.6985
G1 X106.628 Y190.449 E5.7198
G1 X117.549 Y201.370 E6.3002
G1 X118.114 Y201.370 E6.3215
G1 X106.628 Y189.884 E6.9320
G1 X106.628 Y189.318 E6.9532
G1 X118.680 Y201.370 E7.5938
G1 X119.246 Y201.370 E7.6151
G1 X106.628 Y188.752 E8.2857
G1 X106.628 Y188.187 E8.3070
G1 X119.811 Y201.370 E9.0077
G1 X120.377 Y201.370 E9.0290
G1 X106.628 Y187.621 E9.7598
G1 X106.628 Y187.055 E9.7810
G1 X120.943 Y201.370 E10.5419
G1 X121.508 Y201.370 E10.5631
G1 X106.628 Y186.490 E11.3541
G1 X106.628 Y185.924 E11.3753
G1 X122.074 Y201.370 E12.1963
G1 X122.640 Y201.370 E12.2176
G1 X106.628 Y185.358 E13.0686
G1 X106.628 Y184.793 E13.0899
G1 X123.205 Y201.370 E13.9710
G1 X123.771 Y201.370 E13.9923
G1 X106.628 Y184.227 E14.9035
G1 X106.628 Y183.661 E14.9247
G1 X124.337 Y201.370 E15.8660
G1 X124.903 Y201.370 E15.8872
G1 X106.628 Y183.095 E16.8586
G1 X106.628 Y182.530 E16.8798
G1 X125.468 Y201.370 E17.8812
G1 X126.034 Y201.370 E17.9025
G1 X106.628 Y181.964 E18.9339
G1 X106.628 Y181.398 E18.9552
G1 X126.600 Y201.370 E20.0167
G1 X127.165 Y201.370 E20.0380
G1 X106.628 Y180.833 E21.1296
G1 X106.628 Y180.267 E21.1508
G1 X127.731 Y201.370 E22.2725
G1 X128.297 Y201.370 E22.2937
G1 X106.628 Y179.701 E23.4455
G1 X106.628 Y179.136 E23.4667
G1 X128.862 Y201.370 E24.6485
G1 X129.428 Y201.370 E24.6698
G1 X106.628 Y178.570 E25.8816
G1 X106.628 Y178.004 E25.9029
G1 X129.994 Y201.370 E27.1448
G1 X130.559 Y201.370 E27.1661
G1 X106.628 Y177.439 E28.4381
G1 X106.628 Y176.873 E28.4594
G1 X131.125 Y201.370 E29.7614
G1 X131.691 Y201.370 E29.7827
G1 X106.628 Y176.307 E31.1148
G1 X106.628 Y175.742 E31.1361
G1 X132.256 Y201.370 E32.4983
G1 X132.822 Y201.370 E32.5195
G1 X106.628 Y175.176 E33.9118
G1 X106.628 Y174.610 E33.9330
G1 X133.388 Y201.370 E35.3554
G1 X133.954 Y201.370 E35.3766
G1 X106.628 Y174.045 E36.8290
G1 X106.628 Y173.479 E36.8503
G1 X134.519 Y201.370 E38.3328
G1 X135.085 Y201.370 E38.3540
G1 X106.628 Y172.913 E39.8666
G1 X106.628 Y172.347 E39.8878
G1 X135.651 Y201.370 E41.4304
G1 X136.216 Y201.370 E41.4517
G1 X106.628 Y171.782 E43.0243
G1 X106.628 Y171.216 E43.0456
G1 X136.782 Y201.370 E44.6483
G1 X137.348 Y201.370 E44.6696
G1 X106.628 Y170.650 E46.3024
G1 X106.628 Y170.085 E46.3237
G1 X137.913 Y201.370 E47.9865
G1 X138.479 Y201.370 E48.0078
G1 X106.628 Y169.519 E49.7007
G1 X106.628 Y168.953 E49.7220
G1 X139.045 Y201.370 E51.4450
G1 X139.610 Y201.370 E51.4663
G1 X106.628 Y168.388 E53.2193
G1 X106.628 Y167.822 E53.2406
G1 X140.176 Y201.370 E55.0237
G1 X140.742 Y201.370 E55.0450
G1 X106.628 Y167.256 E56.8582
G1 X106.628 Y166.691 E56.8794
G1 X141.307 Y201.370 E58.7227
G1 X141.873 Y201.370 E58.7440
G1 X106.628 Y166.125 E60.6173
G1 X106.628 Y165.559 E60.6386
G1 X142.439 Y201.370 E62.5420
G1 X143.004 Y201.370 E62.5632
G1 X106.628 Y164.994 E64.4967
G1 X106.628 Y164.428 E64.5180
G1 X143.570 Y201.370 E66.4815
G1 X144.136 Y201.370 E66.5028
G1 X106.628 Y163.862 E68.4964
G1 X106.628 Y163.296 E68.5176
G1 X144.702 Y201.370 E70.5413
G1 X145.267 Y201.370 E70.5626
G1 X106.628 Y162.731 E72.6163
G1 X106.628 Y162.165 E72.6376
G1 X145.833 Y201.370 E74.7214
G1 X146.399 Y201.370 E74.7426
G1 X106.628 Y161.599 E76.8565
G1 X106.628 Y161.034 E76.8778
G1 X146.964 Y201.370 E79.0217
G1 X147.530 Y201.370 E79.0430
G1 X106.628 Y160.468 E81.2170
G1 X106.628 Y159.902 E81.2383
G1 X148.096 Y201.370 E83.4423
G1 X148.661 Y201.370 E83.4636
G1 X106.628 Y159.337 E85.6977
G1 X106.628 Y158.771 E85.7190
G1 X149.227 Y201.370 E87.9832
G1 X149.793 Y201.370 E88.0045
G1 X106.628 Y158.205 E90.2988
G1 X106.628 Y157.640 E90.3200
G1 X150.358 Y201.370 E92.6444
G1 X150.924 Y201.370 E92.6656
G1 X106.628 Y157.074 E95.0200
G1 X106.628 Y156.508 E95.0413
G1 X151.490 Y201.370 E97.4258
G1 X152.055 Y201.370 E97.4470
G1 X106.628 Y155.943 E99.8616
G1 X106.628 Y155.377 E99.8828
G1 X152.621 Y201.370 E102.3275
G1 X153.187 Y201.370 E102.3487
G1 X106.628 Y154.811 E104.8234
G1 X106.628 Y154.246 E104.8447
G1 X153.752 Y201.370 E107.3494
G1 X154.318 Y201.370 E107.3707
G1 X106.628 Y153.680 E109.9055
G1 X106.628 Y153.114 E109.9267
G1 X154.884 Y201.370 E112.4916
G1 X155.450 Y201.370 E112.5129
G1 X106.628 Y152.548 E115.1078
G1 X106.628 Y151.983 E115.1291
G1 X156.015 Y201.370 E117.7541
G1 X156.581 Y201.370 E117.7754
G1 X106.628 Y151.417 E120.4305
G1 X106.628 Y150.851 E120.4517
G1 X157.147 Y201.370 E123.1369
G1 X157.712 Y201.370 E123.1581
G1 X106.628 Y150.286 E125.8734
G1 X106.628 Y149.720 E125.8946
G1 X158.278 Y201.370 E128.6399
G1 X158.844 Y201.370 E128.6612
G1 X106.628 Y149.154 E131.4365
G1 X106.628 Y148.589 E131.4578
G1 X159.409 Y201.370 E134.2632
G1 X159.975 Y201.370 E134.2845
G1 X106.628 Y148.023 E137.1199
G1 X106.628 Y147.457 E137.1412
G1 X160.541 Y201.370 E140.0068
G1 X161.106 Y201.370 E140.0280
G1 X106.628 Y146.892 E142.9236
G1 X106.628 Y146.326 E142.9449
G1 X161.672 Y201.370 E145.8706
G1 X162.238 Y201.370 E145.8919
G1 X106.628 Y145.760 E148.8476
G1 X106.628 Y145.195 E148.8689
G1 X162.803 Y201.370 E151.8547
G1 X163.369 Y201.370 E151.8760
G1 X106.628 Y144.629 E154.8918
G1 X106.628 Y144.063 E154.9131
G1 X163.935 Y201.370 E157.9591
G1 X164.501 Y201.370 E157.9803
G1 X106.628 Y143.497 E161.0564
G1 X106.628 Y142.932 E161.0776
G1 X165.066 Y201.370 E164.1837
G1 X165.632 Y201.370 E164.2050
G1 X106.628 Y142.366 E167.3411
G1 X106.628 Y141.800 E167.3624
G1 X166.198 Y201.370 E170.5286
G1 X166.763 Y201.370 E170.5499
G1 X106.628 Y141.235 E173.7462
G1 X106.628 Y140.669 E173.7674
G1 X167.329 Y201.370 E176.9938
G1 X167.895 Y201.370 E177.0150
G1 X106.628 Y140.103 E180.2715
G1 X106.628 Y139.538 E180.2927
G1 X168.460 Y201.370 E183.5792
G1 X169.026 Y201.370 E183.6005
G1 X106.628 Y138.972 E186.9171
G1 X106.628 Y138.406 E186.9383
G1 X169.592 Y201.370 E190.2849
G1 X170.157 Y201.370 E190.3062
G1 X106.628 Y137.841 E193.6829
G1 X106.628 Y137.275 E193.7042
G1 X170.723 Y201.370 E197.1109
G1 X171.289 Y201.370 E197.1322
G1 X106.628 Y136.709 E200.5690
G1 X106.628 Y136.144 E200.5903
G1 X171.854 Y201.370 E204.0572
G1 X172.420 Y201.370 E204.0784
G1 X106.628 Y135.578 E207.5754
G1 X106.628 Y135.012 E207.5967
G1 X172.986 Y201.370 E211.1237
G1 X173.551 Y201.370 E211.1450
G1 X106.628 Y134.447 E214.7021
G1 X106.628 Y133.881 E214.7233
G1 X174.117 Y201.370 E218.3105
G1 X174.683 Y201.370 E218.3317
G1 X106.628 Y133.315 E221.9490
G1 X106.628 Y132.749 E221.9702
G1 X175.249 Y201.370 E225.6175
G1 X175.814 Y201.370 E225.6388
G1 X106.628 Y132.184 E229.3162
G1 X106.628 Y131.618 E229.3374
G1 X176.380 Y201.370 E233.0449
G1 X176.946 Y201.370 E233.0661
G1 X106.628 Y131.052 E236.8036
G1 X106.628 Y130.487 E236.8249
G1 X177.511 Y201.370 E240.5925
G1 X178.077 Y201.370 E240.6137
G1 X106.628 Y129.921 E244.4114
G1 X106.628 Y129.355 E244.4326
G1 X178.643 Y201.370 E248.2603
G1 X179.208 Y201.370 E248.2816
G1 X106.628 Y128.790 E252.1394
G1 X106.628 Y128.224 E252.1606
G1 X179.774 Y201.370 E256.0485
G1 X180.340 Y201.370 E256.0697
G1 X106.628 Y127.658 E259.9876
G1 X106.628 Y127.093 E260.0089
G1 X180.905 Y201.370 E263.9569
G1 X181.471 Y201.370 E263.9781
G1 X106.628 Y126.527 E267.9562
G1 X106.628 Y125.961 E267.9774
G1 X182.037 Y201.370 E271.9855
G1 X182.602 Y201.370 E272.0068
G1 X106.628 Y125.396 E276.0450
G1 X106.628 Y124.830 E276.0662
G1 X183.168 Y201.370 E280.1345
G1 X183.734 Y201.370 E280.1557
G1 X106.628 Y124.264 E284.2540
G1 X106.628 Y123.699 E284.2753
G1 X184.300 Y201.370 E288.4037
G1 X184.865 Y201.370 E288.4249
G1 X106.628 Y123.133 E292.5834
G1 X106.628 Y122.567 E292.6046
G1 X185.431 Y201.370 E296.7931
G1 X185.997 Y201.370 E296.8144
G1 X106.628 Y122.001 E301.0330
G1 X106.628 Y121.436 E301.0542
G1 X186.562 Y201.370 E305.3029
G1 X187.128 Y201.370 E305.3241
