; G-Code generated by Simplify3D(R) Version 4.1.2
; Aug 10, 2022 at 11:58:15 AM
; Settings Summary
;   processName,Process1
;   applyToModels,Sprinkler Case - bottom v2
;   profileName,Creality Ender 5 Plus - v6 (modified)
;   profileVersion,2021-04-05 09:37:09
;   baseProfile,Creality Ender-5(3) (modified)
;   printMaterial,PLA
;   printQuality,Medium
;   printExtruders,
;   extruderName,Primary Extruder
;   extruderToolheadNumber,0
;   extruderDiameter,0.4
;   extruderAutoWidth,0
;   extruderWidth,0.4
;   extrusionMultiplier,1.12
;   extruderUseRetract,1
;   extruderRetractionDistance,2
;   extruderExtraRestartDistance,0
;   extruderRetractionZLift,0
;   extruderRetractionSpeed,1800
;   extruderUseCoasting,0
;   extruderCoastingDistance,0.1
;   extruderUseWipe,0
;   extruderWipeDistance,0.1
;   primaryExtruder,0
;   layerHeight,0.2
;   topSolidLayers,3
;   bottomSolidLayers,3
;   perimeterOutlines,3
;   printPerimetersInsideOut,1
;   startPointOption,2
;   startPointOriginX,350
;   startPointOriginY,0
;   sequentialIslands,0
;   spiralVaseMode,0
;   firstLayerHeightPercentage,100
;   firstLayerWidthPercentage,100
;   firstLayerUnderspeed,0.25
;   useRaft,0
;   raftExtruder,0
;   raftTopLayers,2
;   raftBaseLayers,2
;   raftOffset,20
;   raftSeparationDistance,0.14
;   raftTopInfill,100
;   aboveRaftSpeedMultiplier,0.3
;   useSkirt,1
;   skirtExtruder,0
;   skirtLayers,1
;   skirtOutlines,2
;   skirtOffset,5
;   usePrimePillar,0
;   primePillarExtruder,999
;   primePillarWidth,6
;   primePillarLocation,6
;   primePillarSpeedMultiplier,1
;   useOozeShield,0
;   oozeShieldExtruder,999
;   oozeShieldOffset,2
;   oozeShieldOutlines,1
;   oozeShieldSidewallShape,1
;   oozeShieldSidewallAngle,30
;   oozeShieldSpeedMultiplier,1
;   infillExtruder,0
;   internalInfillPattern,Rectilinear
;   externalInfillPattern,Rectilinear
;   infillPercentage,20
;   outlineOverlapPercentage,18
;   infillExtrusionWidthPercentage,100
;   minInfillLength,3
;   infillLayerInterval,1
;   internalInfillAngles,45,-45
;   overlapInternalInfillAngles,0
;   externalInfillAngles,45,-45
;   generateSupport,0
;   supportExtruder,0
;   supportInfillPercentage,25
;   supportExtraInflation,0
;   supportBaseLayers,3
;   denseSupportExtruder,0
;   denseSupportLayers,1
;   denseSupportInfillPercentage,70
;   supportLayerInterval,1
;   supportHorizontalPartOffset,0.3
;   supportUpperSeparationLayers,1
;   supportLowerSeparationLayers,1
;   supportType,0
;   supportGridSpacing,3
;   maxOverhangAngle,65
;   supportAngles,0
;   temperatureName,Primary Extruder,Heated Bed
;   temperatureNumber,0,0
;   temperatureSetpointCount,1,1
;   temperatureSetpointLayers,1,1
;   temperatureSetpointTemperatures,200,50
;   temperatureStabilizeAtStartup,1,1
;   temperatureHeatedBed,0,1
;   fanLayers,1,2,5
;   fanSpeeds,0,0,60
;   blipFanToFullPower,1
;   adjustSpeedForCooling,0
;   minSpeedLayerTime,10
;   minCoolingSpeedSlowdown,20
;   increaseFanForCooling,1
;   minFanLayerTime,45
;   maxCoolingFanSpeed,100
;   increaseFanForBridging,1
;   bridgingFanSpeed,100
;   use5D,1
;   relativeEdistances,0
;   allowEaxisZeroing,1
;   independentExtruderAxes,0
;   includeM10123,0
;   stickySupport,1
;   applyToolheadOffsets,0
;   gcodeXoffset,0
;   gcodeYoffset,0
;   gcodeZoffset,0
;   overrideMachineDefinition,1
;   machineTypeOverride,0
;   strokeXoverride,350
;   strokeYoverride,350
;   strokeZoverride,400
;   originOffsetXoverride,0
;   originOffsetYoverride,0
;   originOffsetZoverride,0
;   homeXdirOverride,-1
;   homeYdirOverride,-1
;   homeZdirOverride,-1
;   flipXoverride,1
;   flipYoverride,-1
;   flipZoverride,1
;   toolheadOffsets,0,0|0,0|0,0|0,0|0,0|0,0
;   overrideFirmwareConfiguration,1
;   firmwareTypeOverride,RepRap (Marlin/Repetier/Sprinter)
;   GPXconfigOverride,r2
;   baudRateOverride,115200
;   overridePrinterModels,1
;   printerModelsOverride
;   startingGcode,G28; home all axes,;G29 ; BLTouch bed leveling,M420 S1 ; restore ABL mesh ,G1 X5 Y10 Z0.2 F3000 ; get ready to prime,G92 E0 ; reset extrusion distance,G1 X200 E15 F600 ; prime nozzle,G1 X210 F5000 ; quick wipe
;   layerChangeGcode,
;   retractionGcode,
;   toolChangeGcode,
;   endingGcode,G28 X0 Y0 ; home X and Y axis,M106 S0 ; turn off cooling fan,M104 S0 ; turn off extruder,M140 S0 ; turn off bed,M84 ; disable motors
;   exportFileFormat,gcode
;   celebration,0
;   celebrationSong,Take On Me
;   postProcessing,
;   defaultSpeed,2400
;   outlineUnderspeed,0.6
;   solidInfillUnderspeed,0.8
;   supportUnderspeed,0.8
;   rapidXYspeed,6000
;   rapidZspeed,1002
;   minBridgingArea,25
;   bridgingExtraInflation,0.5
;   bridgingExtrusionMultiplier,1
;   bridgingSpeedMultiplier,1.1
;   useFixedBridgingAngle,0
;   fixedBridgingAngle,0
;   applyBridgingToPerimeters,0
;   filamentDiameters,1.75|1.75|1.75|1.75|1.75|1.75
;   filamentPricesPerKg,30|46|46|46|46|46
;   filamentDensities,1.25|1.25|1.25|1.25|1.25|1.25
;   useMinPrintHeight,0
;   minPrintHeight,10
;   useMaxPrintHeight,0
;   maxPrintHeight,6
;   useDiaphragm,0
;   diaphragmLayerInterval,20
;   robustSlicing,1
;   mergeAllIntoSolid,0
;   onlyRetractWhenCrossingOutline,0
;   retractBetweenLayers,1
;   useRetractionMinTravel,1
;   retractionMinTravel,1
;   retractWhileWiping,1
;   onlyWipeOutlines,1
;   avoidCrossingOutline,0
;   maxMovementDetourFactor,3
;   toolChangeRetractionDistance,12
;   toolChangeExtraRestartDistance,-0.5
;   toolChangeRetractionSpeed,600
;   externalThinWallType,0
;   internalThinWallType,1
;   thinWallAllowedOverlapPercentage,20
;   singleExtrusionMinLength,0.5
;   singleExtrusionMinPrintingWidthPercentage,50
;   singleExtrusionMaxPrintingWidthPercentage,200
;   singleExtrusionEndpointExtension,0.2
;   horizontalSizeCompensation,0
G90
M82
M106 S0
M140 S50
M190 S50
M104 S200 T0
M109 S200 T0
G28; home all axes
;G29 ; BLTouch bed leveling
M420 S1 ; restore ABL mesh 
G1 X5 Y10 Z0.2 F3000 ; get ready to prime
G92 E0 ; reset extrusion distance
G1 X200 E15 F600 ; prime nozzle
G1 X210 F5000 ; quick wipe
; process Process1
; layer 1, Z = 0.200
T0
G92 E0.0000
G1 E-2.0000 F1800
; feature skirt
; tool H0.200 W0.400
G1 Z0.200 F1002
G1 X101.938 Y125.244 F6000
G1 E0.0000 F1800
G92 E0.0000
G1 X102.480 Y124.820 E0.0256 F600
G1 X103.268 Y124.348 E0.0599
G1 X103.964 Y124.050 E0.0881
G1 X105.023 Y123.757 E0.1290
G1 X105.773 Y123.655 E0.1572
G1 X243.922 Y123.650 E5.3034
G1 X244.265 Y123.671 E5.3162
G1 X245.123 Y123.777 E5.3484
G1 X245.983 Y124.026 E5.3818
G1 X247.239 Y124.620 E5.4335
G1 X248.125 Y125.277 E5.4746
G1 X249.081 Y126.332 E5.5277
G1 X249.597 Y127.147 E5.5636
G1 X250.039 Y128.214 E5.6066
G1 X250.232 Y128.946 E5.6348
G1 X250.329 Y129.735 E5.6644
G1 X250.350 Y130.078 E5.6772
G1 X250.350 Y219.922 E9.0240
G1 X250.329 Y220.265 E9.0368
G1 X250.236 Y221.020 E9.0652
G1 X250.069 Y221.687 E9.0908
G1 X249.733 Y222.558 E9.1255
G1 X249.408 Y223.165 E9.1512
G1 X248.851 Y223.956 E9.1872
G1 X248.336 Y224.510 E9.2154
G1 X247.497 Y225.199 E9.2558
G1 X246.789 Y225.623 E9.2866
G1 X245.786 Y226.039 E9.3270
G1 X245.054 Y226.232 E9.3552
G1 X244.265 Y226.329 E9.3849
G1 X243.922 Y226.350 E9.3977
G1 X106.078 Y226.350 E14.5325
G1 X105.735 Y226.329 E14.5453
G1 X104.980 Y226.236 E14.5737
G1 X104.313 Y226.069 E14.5993
G1 X103.442 Y225.733 E14.6341
G1 X102.835 Y225.409 E14.6597
G1 X102.044 Y224.851 E14.6957
G1 X101.490 Y224.336 E14.7239
G1 X100.801 Y223.497 E14.7644
G1 X100.377 Y222.789 E14.7951
G1 X99.961 Y221.786 E14.8355
G1 X99.768 Y221.054 E14.8638
G1 X99.671 Y220.265 E14.8934
G1 X99.650 Y219.922 E14.9062
G1 X99.655 Y129.773 E18.2643
G1 X99.757 Y129.023 E18.2925
G1 X100.050 Y127.964 E18.3335
G1 X100.348 Y127.268 E18.3617
G1 X100.820 Y126.480 E18.3959
G1 X101.244 Y125.938 E18.4215
G1 X101.938 Y125.244 E18.4581
G1 X102.203 Y125.544 F6000
G92 E0.0000
G1 X102.707 Y125.151 E0.0238 F600
G1 X103.451 Y124.705 E0.0561
G1 X104.097 Y124.428 E0.0823
G1 X105.104 Y124.149 E0.1212
G1 X105.800 Y124.055 E0.1474
G1 X243.909 Y124.050 E5.2921
G1 X244.228 Y124.070 E5.3040
G1 X245.042 Y124.170 E5.3346
G1 X245.841 Y124.401 E5.3656
G1 X247.032 Y124.965 E5.4147
G1 X247.855 Y125.575 E5.4528
G1 X248.761 Y126.576 E5.5031
G1 X249.240 Y127.332 E5.5365
G1 X249.659 Y128.342 E5.5772
G1 X249.838 Y129.022 E5.6034
G1 X249.930 Y129.772 E5.6315
G1 X249.950 Y130.090 E5.6434
G1 X249.950 Y219.910 E8.9893
G1 X249.930 Y220.228 E9.0012
G1 X249.842 Y220.947 E9.0282
G1 X249.687 Y221.566 E9.0520
G1 X249.369 Y222.391 E9.0849
G1 X249.067 Y222.954 E9.1087
G1 X248.540 Y223.703 E9.1428
G1 X248.061 Y224.218 E9.1690
G1 X247.266 Y224.871 E9.2073
G1 X246.608 Y225.265 E9.2359
G1 X245.658 Y225.659 E9.2742
G1 X244.978 Y225.838 E9.3004
G1 X244.228 Y225.930 E9.3285
G1 X243.910 Y225.950 E9.3404
G1 X106.090 Y225.950 E14.4744
G1 X105.772 Y225.930 E14.4863
G1 X105.053 Y225.842 E14.5132
G1 X104.434 Y225.687 E14.5370
G1 X103.609 Y225.369 E14.5700
G1 X103.046 Y225.067 E14.5938
G1 X102.297 Y224.540 E14.6279
G1 X101.782 Y224.061 E14.6541
G1 X101.129 Y223.266 E14.6924
G1 X100.735 Y222.608 E14.7209
G1 X100.341 Y221.658 E14.7593
G1 X100.162 Y220.978 E14.7855
G1 X100.070 Y220.228 E14.8136
G1 X100.050 Y219.909 E14.8255
G1 X100.055 Y129.800 E18.1822
G1 X100.149 Y129.104 E18.2084
G1 X100.428 Y128.097 E18.2473
G1 X100.705 Y127.451 E18.2735
G1 X101.151 Y126.707 E18.3058
G1 X101.544 Y126.203 E18.3296
G1 X102.203 Y125.544 E18.3643
G92 E0.0000
G1 E-2.0000 F1800
; feature inner perimeter
G1 X106.255 Y130.255 F6000
G1 E0.0000 F1800
G92 E0.0000
G1 X243.750 Y130.250 E5.1219 F480
G1 X243.750 Y219.750 E8.4559
G1 X106.250 Y219.750 E13.5779
G1 X106.255 Y130.255 E16.9118
G1 X105.855 Y130.204 F6000
G92 E0.0000
G1 X105.862 Y130.160 E0.0016 F480
G1 X105.891 Y130.080 E0.0048
G1 X105.935 Y130.007 E0.0080
G1 X105.968 Y129.968 E0.0099
G1 X106.007 Y129.935 E0.0118
G1 X106.080 Y129.891 E0.0150
G1 X106.160 Y129.862 E0.0182
G1 X106.204 Y129.855 E0.0198
G1 X243.713 Y129.850 E5.1422
G1 X243.846 Y129.866 E5.1472
G1 X243.950 Y129.907 E5.1513
G1 X243.987 Y129.930 E5.1530
G1 X244.020 Y129.959 E5.1546
G1 X244.098 Y130.058 E5.1593
G1 X244.118 Y130.098 E5.1610
G1 X244.132 Y130.139 E5.1626
G1 X244.150 Y130.287 E5.1681
G1 X244.150 Y219.713 E8.4994
G1 X244.134 Y219.846 E8.5044
G1 X244.099 Y219.936 E8.5080
G1 X244.034 Y220.028 E8.5121
G1 X244.003 Y220.058 E8.5138
G1 X243.955 Y220.092 E8.5160
G1 X243.902 Y220.118 E8.5181
G1 X243.861 Y220.132 E8.5198
G1 X243.713 Y220.150 E8.5253
G1 X106.287 Y220.150 E13.6446
G1 X106.154 Y220.134 E13.6496
G1 X106.064 Y220.099 E13.6532
G1 X105.972 Y220.034 E13.6574
G1 X105.942 Y220.003 E13.6590
G1 X105.908 Y219.955 E13.6612
G1 X105.882 Y219.902 E13.6634
G1 X105.868 Y219.861 E13.6650
G1 X105.850 Y219.713 E13.6706
G1 X105.855 Y130.204 E17.0049
; feature outer perimeter
G1 X105.455 Y130.169 F6000
G92 E0.0000
G1 X105.474 Y130.058 E0.0042 F360
G1 X105.528 Y129.908 E0.0101
G1 X105.609 Y129.772 E0.0161
G1 X105.685 Y129.685 E0.0203
G1 X105.772 Y129.609 E0.0246
G1 X105.908 Y129.528 E0.0306
G1 X106.058 Y129.474 E0.0365
G1 X106.169 Y129.455 E0.0407
G1 X243.738 Y129.450 E5.1653
G1 X243.944 Y129.475 E5.1730
G1 X244.131 Y129.548 E5.1805
G1 X244.226 Y129.608 E5.1847
G1 X244.312 Y129.681 E5.1889
G1 X244.438 Y129.843 E5.1966
G1 X244.489 Y129.944 E5.2008
G1 X244.524 Y130.051 E5.2049
G1 X244.550 Y130.262 E5.2129
G1 X244.550 Y219.738 E8.5460
G1 X244.525 Y219.944 E8.5537
G1 X244.454 Y220.126 E8.5610
G1 X244.339 Y220.290 E8.5685
G1 X244.257 Y220.368 E8.5726
G1 X244.161 Y220.436 E8.5770
G1 X244.056 Y220.489 E8.5814
G1 X243.949 Y220.524 E8.5856
G1 X243.738 Y220.550 E8.5935
G1 X106.262 Y220.550 E13.7147
G1 X106.056 Y220.525 E13.7224
G1 X105.874 Y220.454 E13.7297
G1 X105.710 Y220.339 E13.7372
G1 X105.632 Y220.257 E13.7414
G1 X105.564 Y220.161 E13.7458
G1 X105.511 Y220.056 E13.7501
G1 X105.476 Y219.949 E13.7543
G1 X105.450 Y219.738 E13.7623
G1 X105.455 Y130.169 E17.0988
G92 E0.0000
G1 E-2.0000 F1800
; feature inner perimeter
G1 X124.706 Y148.636 F6000
G1 E0.0000 F1800
G92 E0.0000
G1 X124.435 Y148.928 E0.0149 F480
G1 X124.194 Y149.246 E0.0297
G1 X123.986 Y149.586 E0.0446
G1 X123.813 Y149.946 E0.0594
G1 X123.677 Y150.321 E0.0743
G1 X123.578 Y150.707 E0.0892
G1 X123.519 Y151.102 E0.1040
G1 X123.499 Y151.500 E0.1189
G1 X123.519 Y151.898 E0.1337
G1 X123.578 Y152.293 E0.1486
G1 X123.677 Y152.679 E0.1634
G1 X123.813 Y153.054 E0.1783
G1 X123.986 Y153.414 E0.1932
G1 X124.194 Y153.754 E0.2080
G1 X124.435 Y154.072 E0.2229
G1 X124.706 Y154.364 E0.2377
G1 X125.005 Y154.628 E0.2526
G1 X125.339 Y154.868 E0.2679
G1 X125.846 Y155.145 E0.2894
G1 X126.403 Y155.349 E0.3115
G1 X126.805 Y155.440 E0.3269
G1 X127.201 Y155.490 E0.3418
G1 X127.600 Y155.500 E0.3566
G1 X127.997 Y155.470 E0.3715
G1 X128.390 Y155.401 E0.3863
G1 X128.774 Y155.293 E0.4012
G1 X129.146 Y155.147 E0.4160
G1 X129.501 Y154.965 E0.4309
G1 X129.836 Y154.749 E0.4458
G1 X130.148 Y154.500 E0.4606
G1 X130.433 Y154.222 E0.4755
G1 X130.690 Y153.916 E0.4903
G1 X130.914 Y153.586 E0.5052
G1 X131.105 Y153.236 E0.5201
G1 X131.260 Y152.868 E0.5349
G1 X131.377 Y152.487 E0.5498
G1 X131.457 Y152.096 E0.5646
G1 X131.496 Y151.699 E0.5795
G1 X131.496 Y151.300 E0.5944
G1 X131.457 Y150.904 E0.6092
G1 X131.377 Y150.513 E0.6241
G1 X131.260 Y150.132 E0.6389
G1 X131.105 Y149.764 E0.6538
G1 X130.914 Y149.414 E0.6687
G1 X130.690 Y149.084 E0.6835
G1 X130.433 Y148.778 E0.6984
G1 X130.148 Y148.500 E0.7132
G1 X129.826 Y148.243 E0.7286
G1 X129.337 Y147.945 E0.7499
G1 X128.962 Y147.775 E0.7652
G1 X128.572 Y147.644 E0.7806
G1 X128.010 Y147.531 E0.8019
G1 X127.600 Y147.500 E0.8172
G1 X127.201 Y147.510 E0.8321
G1 X126.805 Y147.560 E0.8470
G1 X126.416 Y147.648 E0.8618
G1 X126.038 Y147.775 E0.8767
G1 X125.675 Y147.939 E0.8915
G1 X125.329 Y148.139 E0.9064
G1 X125.005 Y148.372 E0.9213
G1 X124.706 Y148.636 E0.9361
G1 X124.986 Y148.922 F6000
G92 E0.0000
G1 X124.742 Y149.185 E0.0134 F480
G1 X124.525 Y149.472 E0.0267
G1 X124.338 Y149.778 E0.0401
G1 X124.182 Y150.101 E0.0535
G1 X124.059 Y150.439 E0.0669
G1 X123.971 Y150.787 E0.0802
G1 X123.917 Y151.141 E0.0936
G1 X123.899 Y151.500 E0.1070
G1 X123.917 Y151.859 E0.1203
G1 X123.971 Y152.213 E0.1337
G1 X124.059 Y152.561 E0.1471
G1 X124.182 Y152.899 E0.1605
G1 X124.338 Y153.222 E0.1738
G1 X124.525 Y153.528 E0.1872
G1 X124.742 Y153.815 E0.2006
G1 X124.986 Y154.078 E0.2139
G1 X125.255 Y154.315 E0.2273
G1 X125.552 Y154.529 E0.2410
G1 X126.011 Y154.779 E0.2604
G1 X126.517 Y154.964 E0.2805
G1 X126.875 Y155.046 E0.2942
G1 X127.231 Y155.091 E0.3075
G1 X127.590 Y155.100 E0.3209
G1 X127.948 Y155.073 E0.3343
G1 X128.301 Y155.010 E0.3477
G1 X128.647 Y154.913 E0.3610
G1 X128.981 Y154.782 E0.3744
G1 X129.300 Y154.618 E0.3878
G1 X129.602 Y154.424 E0.4011
G1 X129.883 Y154.200 E0.4145
G1 X130.140 Y153.949 E0.4279
G1 X130.370 Y153.674 E0.4413
G1 X130.572 Y153.378 E0.4546
G1 X130.744 Y153.062 E0.4680
G1 X130.884 Y152.732 E0.4814
G1 X130.989 Y152.389 E0.4947
G1 X131.061 Y152.037 E0.5081
G1 X131.096 Y151.680 E0.5215
G1 X131.096 Y151.320 E0.5349
G1 X131.061 Y150.963 E0.5482
G1 X130.989 Y150.611 E0.5616
G1 X130.884 Y150.268 E0.5750
G1 X130.744 Y149.938 E0.5883
G1 X130.572 Y149.622 E0.6017
G1 X130.370 Y149.326 E0.6151
G1 X130.140 Y149.051 E0.6285
G1 X129.883 Y148.800 E0.6418
G1 X129.596 Y148.572 E0.6555
G1 X129.150 Y148.299 E0.6750
G1 X128.816 Y148.148 E0.6886
G1 X128.468 Y148.031 E0.7023
G1 X127.955 Y147.928 E0.7218
G1 X127.590 Y147.900 E0.7354
G1 X127.231 Y147.909 E0.7488
G1 X126.875 Y147.954 E0.7622
G1 X126.525 Y148.034 E0.7755
G1 X126.184 Y148.148 E0.7889
G1 X125.857 Y148.296 E0.8023
G1 X125.546 Y148.475 E0.8157
G1 X125.255 Y148.685 E0.8290
G1 X124.986 Y148.922 E0.8424
; feature outer perimeter
G1 X125.265 Y149.209 F6000
G92 E0.0000
G1 X125.048 Y149.443 E0.0119 F360
G1 X124.856 Y149.697 E0.0238
G1 X124.689 Y149.969 E0.0357
G1 X124.551 Y150.257 E0.0475
G1 X124.442 Y150.557 E0.0594
G1 X124.363 Y150.866 E0.0713
G1 X124.316 Y151.181 E0.0832
G1 X124.300 Y151.500 E0.0951
G1 X124.316 Y151.819 E0.1070
G1 X124.363 Y152.134 E0.1188
G1 X124.442 Y152.443 E0.1307
G1 X124.551 Y152.743 E0.1426
G1 X124.689 Y153.031 E0.1545
G1 X124.856 Y153.303 E0.1664
G1 X125.048 Y153.557 E0.1783
G1 X125.265 Y153.791 E0.1902
G1 X125.505 Y154.002 E0.2020
