; G-Code generated by Simplify3D(R) Version 4.1.2
; Aug 9, 2022 at 10:39:38 PM
; Settings Summary
;   processName,Process1
;   applyToModels,Sprinkler Case - top v1
;   profileName,Creality Ender 5 Plus - v6 (modified)
;   profileVersion,2021-04-05 09:37:09
;   baseProfile,Creality Ender-5(3) (modified)
;   printMaterial,PLA
;   printQuality,Medium
;   printExtruders,
;   extruderName,Primary Extruder
;   extruderToolheadNumber,0
;   extruderDiameter,0.4
;   extruderAutoWidth,0
;   extruderWidth,0.4
;   extrusionMultiplier,1.13
;   extruderUseRetract,1
;   extruderRetractionDistance,1.2
;   extruderExtraRestartDistance,0
;   extruderRetractionZLift,0
;   extruderRetractionSpeed,1800
;   extruderUseCoasting,0
;   extruderCoastingDistance,0.1
;   extruderUseWipe,0
;   extruderWipeDistance,0.1
;   primaryExtruder,0
;   layerHeight,0.2
;   topSolidLayers,3
;   bottomSolidLayers,3
;   perimeterOutlines,3
;   printPerimetersInsideOut,1
;   startPointOption,2
;   startPointOriginX,350
;   startPointOriginY,0
;   sequentialIslands,0
;   spiralVaseMode,0
;   firstLayerHeightPercentage,100
;   firstLayerWidthPercentage,100
;   firstLayerUnderspeed,0.5
;   useRaft,0
;   raftExtruder,0
;   raftTopLayers,2
;   raftBaseLayers,2
;   raftOffset,20
;   raftSeparationDistance,0.14
;   raftTopInfill,100
;   aboveRaftSpeedMultiplier,0.3
;   useSkirt,1
;   skirtExtruder,0
;   skirtLayers,1
;   skirtOutlines,2
;   skirtOffset,5
;   usePrimePillar,0
;   primePillarExtruder,999
;   primePillarWidth,6
;   primePillarLocation,6
;   primePillarSpeedMultiplier,1
;   useOozeShield,0
;   oozeShieldExtruder,999
;   oozeShieldOffset,2
;   oozeShieldOutlines,1
;   oozeShieldSidewallShape,1
;   oozeShieldSidewallAngle,30
;   oozeShieldSpeedMultiplier,1
;   infillExtruder,0
;   internalInfillPattern,Rectilinear
;   externalInfillPattern,Rectilinear
;   infillPercentage,20
;   outlineOverlapPercentage,18
;   infillExtrusionWidthPercentage,100
;   minInfillLength,3
;   infillLayerInterval,1
;   internalInfillAngles,45,-45
;   overlapInternalInfillAngles,0
;   externalInfillAngles,45,-45
;   generateSupport,0
;   supportExtruder,0
;   supportInfillPercentage,25
;   supportExtraInflation,0
;   supportBaseLayers,3
;   denseSupportExtruder,0
;   denseSupportLayers,1
;   denseSupportInfillPercentage,70
;   supportLayerInterval,1
;   supportHorizontalPartOffset,0.3
;   supportUpperSeparationLayers,1
;   supportLowerSeparationLayers,1
;   supportType,0
;   supportGridSpacing,3
;   maxOverhangAngle,65
;   supportAngles,0
;   temperatureName,Primary Extruder,Heated Bed
;   temperatureNumber,0,0
;   temperatureSetpointCount,1,1
;   temperatureSetpointLayers,1,1
;   temperatureSetpointTemperatures,200,50
;   temperatureStabilizeAtStartup,1,1
;   temperatureHeatedBed,0,1
;   fanLayers,1,2,5
;   fanSpeeds,0,0,60
;   blipFanToFullPower,1
;   adjustSpeedForCooling,0
;   minSpeedLayerTime,10
;   minCoolingSpeedSlowdown,20
;   increaseFanForCooling,1
;   minFanLayerTime,45
;   maxCoolingFanSpeed,100
;   increaseFanForBridging,1
;   bridgingFanSpeed,100
;   use5D,1
;   relativeEdistances,0
;   allowEaxisZeroing,1
;   independentExtruderAxes,0
;   includeM10123,0
;   stickySupport,1
;   applyToolheadOffsets,0
;   gcodeXoffset,0
;   gcodeYoffset,0
;   gcodeZoffset,0
;   overrideMachineDefinition,1
;   machineTypeOverride,0
;   strokeXoverride,350
;   strokeYoverride,350
;   strokeZoverride,400
;   originOffsetXoverride,0
;   originOffsetYoverride,0
;   originOffsetZoverride,0
;   homeXdirOverride,-1
;   homeYdirOverride,-1
;   homeZdirOverride,-1
;   flipXoverride,1
;   flipYoverride,-1
;   flipZoverride,1
;   toolheadOffsets,0,0|0,0|0,0|0,0|0,0|0,0
;   overrideFirmwareConfiguration,1
;   firmwareTypeOverride,RepRap (Marlin/Repetier/Sprinter)
;   GPXconfigOverride,r2
;   baudRateOverride,115200
;   overridePrinterModels,1
;   printerModelsOverride
;   startingGcode,G28; home all axes,;G29 ; BLTouch bed leveling,M420 S1 ; restore ABL mesh ,G1 X5 Y10 Z0.2 F3000 ; get ready to prime,G92 E0 ; reset extrusion distance,G1 X200 E15 F600 ; prime nozzle,G1 X210 F5000 ; quick wipe
;   layerChangeGcode,
;   retractionGcode,
;   toolChangeGcode,
;   endingGcode,G28 X0 Y0 ; home X and Y axis,M106 S0 ; turn off cooling fan,M104 S0 ; turn off extruder,M140 S0 ; turn off bed,M84 ; disable motors
;   exportFileFormat,gcode
;   celebration,0
;   celebrationSong,Take On Me
;   postProcessing,
;   defaultSpeed,2400
;   outlineUnderspeed,0.6
;   solidInfillUnderspeed,0.8
;   supportUnderspeed,0.8
;   rapidXYspeed,6000
;   rapidZspeed,1002
;   minBridgingArea,25
;   bridgingExtraInflation,0.5
;   bridgingExtrusionMultiplier,1
;   bridgingSpeedMultiplier,1.1
;   useFixedBridgingAngle,0
;   fixedBridgingAngle,0
;   applyBridgingToPerimeters,0
;   filamentDiameters,1.75|1.75|1.75|1.75|1.75|1.75
;   filamentPricesPerKg,30|46|46|46|46|46
;   filamentDensities,1.25|1.25|1.25|1.25|1.25|1.25
;   useMinPrintHeight,0
;   minPrintHeight,10
;   useMaxPrintHeight,0
;   maxPrintHeight,6
;   useDiaphragm,0
;   diaphragmLayerInterval,20
;   robustSlicing,1
;   mergeAllIntoSolid,0
;   onlyRetractWhenCrossingOutline,0
;   retractBetweenLayers,1
;   useRetractionMinTravel,1
;   retractionMinTravel,1
;   retractWhileWiping,1
;   onlyWipeOutlines,1
;   avoidCrossingOutline,0
;   maxMovementDetourFactor,3
;   toolChangeRetractionDistance,12
;   toolChangeExtraRestartDistance,-0.5
;   toolChangeRetractionSpeed,600
;   externalThinWallType,0
;   internalThinWallType,1
;   thinWallAllowedOverlapPercentage,20
;   singleExtrusionMinLength,0.5
;   singleExtrusionMinPrintingWidthPercentage,50
;   singleExtrusionMaxPrintingWidthPercentage,200
;   singleExtrusionEndpointExtension,0.2
;   horizontalSizeCompensation,0
G90
M82
M106 S0
M140 S50
M190 S50
M104 S200 T0
M109 S200 T0
G28; home all axes
;G29 ; BLTouch bed leveling
M420 S1 ; restore ABL mesh 
G1 X5 Y10 Z0.2 F3000 ; get ready to prime
G92 E0 ; reset extrusion distance
G1 X200 E15 F600 ; prime nozzle
G1 X210 F5000 ; quick wipe
; process Process1
; layer 1, Z = 0.200
T0
G92 E0.0000
G1 E-1.2000 F1800
; feature skirt
; tool H0.200 W0.400
G1 Z0.200 F1002
G1 X69.460 Y77.107 F6000
G1 E0.0000 F1800
G92 E0.0000
G1 X70.254 Y76.519 E0.0371 F1200
G1 X70.917 Y76.154 E0.0656
G1 X71.942 Y75.758 E0.1069
G1 X72.679 Y75.583 E0.1353
G1 X73.387 Y75.513 E0.1621
G1 X73.662 Y75.500 E0.1724
G1 X211.760 Y75.511 E5.3627
G1 X212.577 Y75.632 E5.3937
G1 X213.714 Y75.977 E5.4384
G1 X214.576 Y76.411 E5.4746
G1 X215.636 Y77.197 E5.5243
G1 X216.261 Y77.838 E5.5579
G1 X216.858 Y78.685 E5.5969
G1 X217.182 Y79.292 E5.6227
G1 X217.518 Y80.163 E5.6578
G1 X217.685 Y80.830 E5.6837
G1 X217.778 Y81.585 E5.7122
G1 X217.799 Y81.928 E5.7252
G1 X217.799 Y171.706 E9.0994
G1 X217.769 Y172.118 E9.1149
G1 X217.635 Y173.021 E9.1492
G1 X217.395 Y173.811 E9.1802
G1 X216.932 Y174.792 E9.2210
G1 X216.518 Y175.427 E9.2495
G1 X215.887 Y176.159 E9.2858
G1 X215.377 Y176.621 E9.3117
G1 X214.614 Y177.158 E9.3467
G1 X214.007 Y177.483 E9.3726
G1 X213.137 Y177.819 E9.4077
G1 X212.469 Y177.986 E9.4335
G1 X211.714 Y178.079 E9.4621
G1 X211.371 Y178.100 E9.4751
G1 X73.593 Y178.100 E14.6533
G1 X73.182 Y178.070 E14.6688
G1 X72.279 Y177.936 E14.7031
G1 X71.488 Y177.696 E14.7342
G1 X70.507 Y177.232 E14.7749
G1 X69.873 Y176.819 E14.8034
G1 X69.140 Y176.187 E14.8398
G1 X68.678 Y175.677 E14.8656
G1 X68.141 Y174.915 E14.9007
G1 X67.817 Y174.308 E14.9265
G1 X67.481 Y173.438 E14.9616
G1 X67.314 Y172.770 E14.9875
G1 X67.221 Y172.015 E15.0161
G1 X67.199 Y171.672 E15.0290
G1 X67.201 Y81.707 E18.4102
G1 X67.285 Y81.024 E18.4361
G1 X67.597 Y79.777 E18.4844
G1 X68.069 Y78.780 E18.5259
G1 X68.876 Y77.691 E18.5768
G1 X69.460 Y77.107 E18.6078
G1 X69.722 Y77.411 F6000
G92 E0.0000
G1 X70.470 Y76.856 E0.0350 F1200
G1 X71.086 Y76.517 E0.0614
G1 X72.061 Y76.141 E0.1007
G1 X72.745 Y75.979 E0.1271
G1 X73.417 Y75.912 E0.1525
G1 X73.672 Y75.900 E0.1621
G1 X211.730 Y75.911 E5.3509
G1 X212.489 Y76.023 E5.3797
G1 X213.565 Y76.350 E5.4220
G1 X214.365 Y76.753 E5.4556
G1 X215.372 Y77.499 E5.5027
G1 X215.953 Y78.094 E5.5340
G1 X216.517 Y78.896 E5.5708
G1 X216.818 Y79.459 E5.5948
G1 X217.136 Y80.284 E5.6280
G1 X217.291 Y80.903 E5.6520
G1 X217.380 Y81.622 E5.6793
G1 X217.399 Y81.940 E5.6912
G1 X217.399 Y171.692 E9.0645
G1 X217.371 Y172.074 E9.0788
G1 X217.244 Y172.933 E9.1115
G1 X217.021 Y173.667 E9.1403
G1 X216.581 Y174.597 E9.1790
G1 X216.198 Y175.186 E9.2054
G1 X215.600 Y175.879 E9.2398
G1 X215.127 Y176.308 E9.2638
G1 X214.404 Y176.817 E9.2970
G1 X213.840 Y177.118 E9.3211
G1 X213.016 Y177.437 E9.3543
G1 X212.396 Y177.592 E9.3783
G1 X211.678 Y177.680 E9.4055
G1 X211.359 Y177.700 E9.4175
G1 X73.608 Y177.700 E14.5947
G1 X73.226 Y177.672 E14.6091
G1 X72.367 Y177.544 E14.6418
G1 X71.633 Y177.322 E14.6706
G1 X70.703 Y176.882 E14.7093
G1 X70.114 Y176.499 E14.7357
G1 X69.420 Y175.900 E14.7701
G1 X68.991 Y175.427 E14.7941
G1 X68.482 Y174.704 E14.8273
G1 X68.181 Y174.141 E14.8513
G1 X67.863 Y173.317 E14.8846
G1 X67.708 Y172.697 E14.9086
G1 X67.619 Y171.978 E14.9358
G1 X67.599 Y171.660 E14.9478
G1 X67.601 Y81.731 E18.3276
G1 X67.679 Y81.097 E18.3516
G1 X67.976 Y79.912 E18.3976
G1 X68.414 Y78.986 E18.4361
G1 X69.180 Y77.953 E18.4844
G1 X69.722 Y77.411 E18.5132
G92 E0.0000
G1 E-1.2000 F1800
; feature inner perimeter
G1 X73.801 Y82.100 F6000
G1 E0.0000 F1800
G92 E0.0000
G1 X211.199 Y82.100 E5.1640 F960
G1 X211.199 Y171.500 E8.5240
G1 X73.799 Y171.500 E13.6880
G1 X73.801 Y82.100 E17.0480
G1 X73.722 Y81.711 F6000
G92 E0.0000
G1 X73.829 Y81.700 E0.0040 F960
G1 X211.177 Y81.700 E5.1661
G1 X211.258 Y81.706 E5.1692
G1 X211.315 Y81.719 E5.1714
G1 X211.370 Y81.740 E5.1736
G1 X211.408 Y81.761 E5.1752
G1 X211.493 Y81.834 E5.1794
G1 X211.548 Y81.914 E5.1831
G1 X211.583 Y82.004 E5.1867
G1 X211.599 Y82.137 E5.1917
G1 X211.599 Y171.478 E8.5495
G1 X211.594 Y171.558 E8.5526
G1 X211.581 Y171.616 E8.5548
G1 X211.560 Y171.670 E8.5570
G1 X211.538 Y171.708 E8.5586
G1 X211.465 Y171.793 E8.5628
G1 X211.386 Y171.849 E8.5664
G1 X211.296 Y171.884 E8.5701
G1 X211.163 Y171.900 E8.5751
G1 X73.822 Y171.900 E13.7369
G1 X73.741 Y171.894 E13.7400
G1 X73.684 Y171.881 E13.7422
G1 X73.629 Y171.860 E13.7444
G1 X73.591 Y171.839 E13.7460
G1 X73.506 Y171.766 E13.7502
G1 X73.451 Y171.686 E13.7539
G1 X73.416 Y171.596 E13.7575
G1 X73.399 Y171.463 E13.7625
G1 X73.401 Y82.095 E17.1213
G1 X73.414 Y82.004 E17.1248
G1 X73.441 Y81.930 E17.1277
G1 X73.481 Y81.863 E17.1307
G1 X73.533 Y81.806 E17.1336
G1 X73.601 Y81.755 E17.1368
G1 X73.640 Y81.735 E17.1385
G1 X73.722 Y81.711 E17.1417
; feature outer perimeter
G1 X73.644 Y81.316 F6000
G92 E0.0000
G1 X73.809 Y81.300 E0.0063 F720
G1 X211.192 Y81.300 E5.1696
G1 X211.317 Y81.309 E5.1743
G1 X211.432 Y81.335 E5.1788
G1 X211.541 Y81.377 E5.1832
G1 X211.639 Y81.433 E5.1874
G1 X211.791 Y81.564 E5.1950
G1 X211.904 Y81.724 E5.2023
G1 X211.974 Y81.906 E5.2096
G1 X211.999 Y82.112 E5.2175
G1 X211.999 Y171.493 E8.5767
G1 X211.990 Y171.617 E8.5814
G1 X211.965 Y171.732 E8.5858
G1 X211.922 Y171.842 E8.5903
G1 X211.867 Y171.940 E8.5945
G1 X211.736 Y172.092 E8.6020
G1 X211.576 Y172.204 E8.6094
G1 X211.394 Y172.275 E8.6167
G1 X211.187 Y172.300 E8.6245
G1 X73.807 Y172.300 E13.7878
G1 X73.682 Y172.291 E13.7925
G1 X73.567 Y172.265 E13.7970
G1 X73.458 Y172.223 E13.8014
G1 X73.360 Y172.167 E13.8056
G1 X73.208 Y172.036 E13.8132
G1 X73.095 Y171.876 E13.8205
G1 X73.025 Y171.694 E13.8278
G1 X72.999 Y171.488 E13.8357
G1 X73.001 Y82.066 E17.1965
G1 X73.024 Y81.906 E17.2026
G1 X73.077 Y81.758 E17.2085
G1 X73.158 Y81.624 E17.2143
G1 X73.263 Y81.508 E17.2202
G1 X73.391 Y81.413 E17.2262
G1 X73.491 Y81.362 E17.2304
G1 X73.644 Y81.316 E17.2364
G92 E0.0000
G1 E-1.2000 F1800
; feature inner perimeter
G1 X124.297 Y134.204 F6000
G1 E0.0000 F1800
G92 E0.0000
G1 X124.350 Y134.164 E0.0025 F960
G1 X124.411 Y134.136 E0.0050
G1 X124.487 Y134.119 E0.0079
G1 X124.664 Y134.115 E0.0146
G1 X124.743 Y134.219 E0.0195
G1 X124.782 Y134.296 E0.0227
G1 X125.008 Y134.955 E0.0489
G1 X124.774 Y135.995 E0.0889
G1 X124.710 Y136.164 E0.0958
G1 X124.632 Y136.295 E0.1015
G1 X124.554 Y136.345 E0.1050
G1 X124.480 Y136.350 E0.1078
G1 X124.404 Y136.339 E0.1107
G1 X124.333 Y136.310 E0.1135
G1 X124.277 Y136.252 E0.1165
G1 X124.201 Y136.136 E0.1218
G1 X124.155 Y136.026 E0.1262
G1 X124.097 Y135.806 E0.1348
G1 X124.064 Y135.573 E0.1436
G1 X124.047 Y135.192 E0.1580
G1 X124.056 Y134.941 E0.1674
G1 X124.097 Y134.645 E0.1787
G1 X124.135 Y134.500 E0.1843
G1 X124.193 Y134.361 E0.1899
G1 X124.270 Y134.235 E0.1955
G1 X124.297 Y134.204 E0.1971
G1 X124.024 Y133.909 F6000
G92 E0.0000
G1 X124.144 Y133.818 E0.0057 F960
G1 X124.283 Y133.755 E0.0114
G1 X124.438 Y133.720 E0.0174
G1 X124.665 Y133.715 E0.0259
G1 X124.788 Y133.741 E0.0306
G1 X124.887 Y133.788 E0.0347
G1 X124.971 Y133.858 E0.0388
G1 X125.083 Y134.006 E0.0458
G1 X125.151 Y134.140 E0.0515
G1 X125.511 Y135.189 E0.0932
G1 X125.373 Y135.155 E0.0985
G1 X125.159 Y136.110 E0.1353
G1 X125.072 Y136.338 E0.1445
G1 X124.969 Y136.512 E0.1521
G1 X124.915 Y136.575 E0.1552
G1 X124.864 Y136.622 E0.1578
G1 X124.738 Y136.702 E0.1634
G1 X124.618 Y136.741 E0.1681
G1 X124.464 Y136.752 E0.1739
G1 X124.297 Y136.727 E0.1803
G1 X124.154 Y136.669 E0.1861
G1 X124.062 Y136.604 E0.1903
G1 X123.964 Y136.504 E0.1956
G1 X123.846 Y136.324 E0.2037
G1 X123.775 Y136.155 E0.2105
G1 X123.704 Y135.886 E0.2210
G1 X123.665 Y135.610 E0.2315
G1 X123.646 Y135.194 E0.2471
G1 X123.657 Y134.907 E0.2579
G1 X123.704 Y134.566 E0.2709
G1 X123.756 Y134.371 E0.2784
G1 X123.835 Y134.179 E0.2863
G1 X123.947 Y133.997 E0.2943
G1 X124.024 Y133.909 E0.2987
G92 E0.0000
G1 E-1.2000 F1800
G1 X125.529 Y134.944 F6000
G1 E0.0000 F1800
G92 E0.0000
G1 X126.368 Y134.734 E0.0325 F960
G1 X126.368 Y135.403 E0.0576
G1 X125.529 Y135.194 E0.0901
G1 X125.529 Y134.944 E0.0995
G92 E0.0000
G1 E-1.2000 F1800
G1 X115.746 Y134.983 F6000
G1 E0.0000 F1800
G92 E0.0000
G1 X115.017 Y134.812 E0.0282 F960
G1 X115.190 Y134.577 E0.0391
G1 X115.313 Y134.352 E0.0488
G1 X115.404 Y134.113 E0.0584
G1 X115.461 Y133.854 E0.0683
G1 X115.746 Y133.885 E0.0791
G1 X115.746 Y134.983 E0.1204
G92 E0.0000
G1 E-1.2000 F1800
G1 X112.291 Y134.674 F6000
G1 E0.0000 F1800
G92 E0.0000
G1 X112.065 Y134.851 E0.0108 F960
G1 X111.714 Y135.239 E0.0305
G1 X111.715 Y133.903 E0.0807
G1 X112.008 Y133.879 E0.0917
G1 X112.045 Y134.096 E0.1000
G1 X112.144 Y134.384 E0.1114
G1 X112.291 Y134.674 E0.1236
G92 E0.0000
G1 E-1.2000 F1800
; feature outer perimeter
G1 X129.971 Y136.413 F6000
G1 E0.0000 F1800
G92 E0.0000
G1 X131.376 Y136.413 E0.0528 F720
G1 X131.269 Y136.712 E0.0647
G1 X131.196 Y136.852 E0.0707
G1 X131.114 Y136.966 E0.0760
G1 X131.027 Y137.049 E0.0805
G1 X130.936 Y137.105 E0.0845
G1 X130.810 Y137.146 E0.0894
G1 X130.669 Y137.155 E0.0948
G1 X130.546 Y137.139 E0.0994
G1 X130.432 Y137.103 E0.1039
G1 X130.327 Y137.045 E0.1085
G1 X130.224 Y136.962 E0.1134
G1 X130.130 Y136.851 E0.1189
G1 X130.056 Y136.718 E0.1246
G1 X130.005 Y136.575 E0.1303
G1 X129.971 Y136.413 E0.1365
G92 E0.0000
G1 E-1.2000 F1800
; feature inner perimeter
G1 X137.116 Y143.908 F6000
G1 E0.0000 F1800
G92 E0.0000
G1 X137.519 Y143.734 E0.0165 F960
G1 X137.633 Y143.714 E0.0209
G1 X137.788 Y143.713 E0.0267
G1 X137.878 Y143.728 E0.0301
G1 X137.928 Y143.748 E0.0321
G1 X137.974 Y143.781 E0.0343
G1 X138.027 Y143.849 E0.0375
G1 X138.191 Y144.203 E0.0522
G1 X137.575 Y144.071 E0.0759
G1 X137.116 Y143.908 E0.0942
G92 E0.0000
G1 E-1.2000 F1800
; feature outer perimeter
G1 X138.042 Y137.365 F6000
G1 E0.0000 F1800
G92 E0.0000
G1 X137.931 Y137.272 E0.0055 F720
G1 X137.777 Y137.182 E0.0122
G1 X137.552 Y137.148 E0.0207
G1 X137.502 Y137.127 E0.0228
G1 X137.493 Y137.116 E0.0233
G1 X137.473 Y137.039 E0.0263
G1 X137.462 Y136.820 E0.0345
G1 X137.462 Y134.778 E0.1113
G1 X138.042 Y134.778 E0.1331
G1 X138.042 Y137.365 E0.2303
G92 E0.0000
G1 E-1.2000 F1800
; feature inner perimeter
G1 X147.042 Y145.860 F6000
G1 E0.0000 F1800
G92 E0.0000
G1 X147.402 Y145.771 E0.0139 F960
G1 X147.449 Y146.122 E0.0273
G1 X147.175 Y146.194 E0.0379
G1 X147.042 Y145.860 E0.0514
G92 E0.0000
G1 E-1.2000 F1800
; feature outer perimeter
G1 X144.536 Y137.146 F6000
G1 E0.0000 F1800
G92 E0.0000
